X: 1
T: the Luscombes of Colorado
C: James Gray
R: strathspey
Z: 2013 John Chambers <jc:trillian.mit.edu>
N: PDF from Susie Petrov
M: C
L: 1/8
K: A
E \
|: "A"C<A c>A "E"G>A B>G | "A"A<E "D"d<f "E"ef/g/ "A"ae | "Bm"d<b B>d "A"c<a A>c |
[1 "Bm"d>E "A"c>E "E"(3BAG (3FED :|[2 "Bm"d>E "E"E>e "A"c<A A2 \
|: "A"A,<A C<A "Bm"D<A "A/C#"E<A | "E"E>G d>B "A"c<A AG/A/ :|
[1 "Bm"F<d "E"G<d "A"E<c "F#m"A>C | "Bm"D<F d>c "E"(3BAG (3FED :|\
[2 "Bm"F<d d<f "E"ef/g/ "A"a>c | "Bm"d>F "E"E>e "A"c<A A2 |]
